X: 11447
T: Eavesdropper, The
R: jig
M: 6/8
K: Gmajor
|D2B BAG|Bdd dBG|ceg dBA|BAA AGE|
D2B BAG|Bdd dBG|ceg dBA|1 AGF GFE:|2 AGF GBd||
g2b afd|e/f/ge dBG|cee dBG|BAG ABd|
g2b afd|e/f/ge dBG|cee dBA|1 AGF GBd:|2 AGF GFE||

